X:1
T:Messe, 97.97 D
T:Messe, 97.97 D
T:F. W. Messe, 1888
T:Public Domain Courtesy of the Cyber Hymnal™
C:F. W. Messe, 1888
Z:Public Domain
Z:Courtesy of the Cyber Hymnal™
%%score ( 1 2 ) ( 3 4 )
L:1/8
Q:1/4=95
M:6/8
K:G
V:1 treble 
V:2 treble 
V:3 bass 
V:4 bass 
V:1
 D | [B,D][CE][DF] [DG][DG][FA] | (B2 c) [GB]3 | [Gd][GB]G [Gd]>[GB]G | [FA]3- [FA]2 D | %5
 [B,D][CE][DF] [DG][DG][FA] | B3 [Ec]2 [CE] | [B,D][B,D][B,D] [CD][CF][CA] | [B,G]3- [B,G]2 [B,D] | %9
 [Dc][Dc][Dc] [Dc][DB][FA] | (B2 e) [Gd]3 | [Fe][Fd][FA] [Fe]>[Fd][FA] | [GB]3- [GB]2 D | %13
 [B,D][CE][DF] [DG][DG][FA] | B3 ([Ec]2 [CE]) | [B,D][B,D][B,D] [CD][CF][CA] | [B,G]3- [B,G]2 |] %17
V:2
 D | x6 | G3 x3 | x2 G x G x | x5 D | x6 | (G2 =F) x3 | x6 | x6 | x6 | G3 x3 | x6 | x5 D | x6 | %14
 (G2 =F) x3 | x6 | x5 |] %17
V:3
 [G,B,] | G,G,[D,A,] [G,B,][G,B,][D,D] | (D2 E) [G,D]3 | [G,B,][G,D][G,B,] [G,B,]>[G,D][G,B,] | %4
 [D,D]3- [D,D]2 [G,B,] | G,G,[D,A,] [G,B,][G,B,][D,A,] | G,3 [C,G,]3 | %7
 [D,G,][D,G,][D,G,] [D,A,][D,A,][D,F,] | G,3- G,2 G, | [D,A,][D,A,][D,A,] [D,A,][D,B,][D,C] | %10
 (D2 C) [G,B,]3 | [D,D][D,D][D,D] [D,D]>[D,D][D,D] | [G,,D]3- [G,,D]2 [G,B,] | %13
 G,G,[D,A,] [G,B,][G,B,][D,A,] | G,3 [C,G,]3 | [D,G,][D,G,][D,G,] [D,A,][D,A,][D,F,] | G,3- G,2 |] %17
V:4
 x | G,G, x4 | G,3 x3 | x6 | x6 | G,G, x4 | G,3 x3 | x6 | G,3- G,2 G, | x6 | G,3 x3 | x6 | x6 | %13
 G,G, x4 | G,3 x3 | x6 | G,3- G,2 |] %17

